X:733
T:Welcome To Cork
M:6/8
L:1/8
B:O'Neill's 733
R:Jig
Z:"Transcribed by Bob Safranek, rjs@gsp.org"
N:"Collected by F. O'Neill"
K:G
B/c/|dBG  dBG|efg dBG|cec   BdB|cAG FED|
dBG  ecA|gag fed|fed   cAF|AGG G2  :|
|:  G|Ggf  gag|fde  f3|Ffe  fgf|edc dcA|
Gagf gag|fde  f3|cde  fcA|AGG G2  :|
